X: 10926
T: Drumcross
R: reel
M: 4/4
K: Bminor
fe|dBBB BAAA|BFFE F2 fe|dBBB BAAA|dBBA Bcde|
fBBB AFFF|AFEF A3 B|ABde f2 fe|dBBA Bcde|
fBBB AFFF|AFEF A3 a|fBBB AFFF|dBBA Bcde|
fBBB AFFF|AFEF A3 B|ABde f2 fe|dBBA B2 z d|
|:ABde ffff|.affa f2 ff|ABde ffff|fede e3 a|
fBBB AFFF|AFEF A3 ^G|ABde f2 fe|dBBA B2 z d:|

